X:1
T:Title
%%score { 1 | ( 2 3 ) }
L:1/8
M:4/4
K:Eb
V:1 treble nm="Grand Piano"
V:2 treble 
V:3 treble 
V:1
 z8[Q:1/4=100] | [EGB]2 [B,AB]2 [EGB]2 e2 | [B,GB]2 [AB]2 .[B,GB]2 z2 | %3
 [B,D]2 [B,D]2 .[B,E]2 [B,E]2 |[M:3/4] [DF]6 |[M:1/4] FG |[M:4/4] [B,FA]2 AB G2 GA | %7
 [G,DF]2 FG [G,CE]2 [G,CE]2 | [A,CF]2 .[A,CF]2[K:bass] .[F,B,D]2 [A,B,D]2 |[M:3/4] [E,G,B,E]6 |] %10
V:2
 z4 z2 z G | E,2 E,2 E,2[K:treble] EF | E,2 D,2 z[K:treble] G E2 | F,A,F,A, G,B,G,E, | %4
[M:3/4] B,,D, F,=A, B,2 |[M:1/4] DE |[M:4/4] D,2[K:treble] FD[K:bass] [E,B,E]2 EC | %7
 =B,,2 D=B, C,2 C,_B,, | A,,2 z G, z G, B,,2 |[M:3/4] E,,6 |] %10
V:3
 z4 z2 E2 | x6[K:treble] x2 | z4 E,2[K:treble] z2 | x8 |[M:3/4] x6 |[M:1/4] x2 | %6
[M:4/4] x2[K:treble] x2[K:bass] x4 | x8 | z2 A,,2 B,,2 z2 |[M:3/4] x6 |] %10

